public/img/structureEditor/date.svg

<svg id="svg2" width="96.171875" height="96.173828" enable-background="new 0 0 100 100" version="1.1" viewBox="0 0 96.171875 96.173828" xml:space="preserve" xmlns="http://www.w3.org/2000/svg"><path id="path4148" d="m3.9609375 3.875v20.707031h88.2500005v-20.707031h-88.2500005zm34.8808595 4.2265625h2.205078v5.8828125c0 0.2475-0.014922 0.475547-0.044922 0.685547-0.022467 0.21-0.06497 0.391015-0.125 0.541016-0.0975 0.239999-0.231797 0.461562-0.404297 0.664062-0.165 0.195-0.360937 0.363359-0.585937 0.505859-0.225 0.135-0.476406 0.239454-0.753907 0.314453-0.27 0.0825-0.553515 0.125-0.853515 0.125-0.9075 0-1.646797-0.417499-2.216797-1.25l1.439453-1.472656c0.037533 0.255 0.12058 0.457422 0.248047 0.607422 0.1275 0.15 0.285156 0.224609 0.472656 0.22461 0.4125-1e-6 0.619141-0.326016 0.619141-0.978516v-5.8496095zm6.183594 0h2.408203l3.228515 8.4824215h-2.351562l-0.505859-1.474609h-3.150391l-0.505859 1.474609h-2.351563l3.228516-8.4824215zm6.613281 0h2.205078l4.072266 5.1855465v-5.1855465h2.193359v8.4824215h-2.193359l-4.072266-5.1875v5.1875h-2.205078v-8.4824215zm-5.408203 2.5078125l-0.990235 2.824219h1.980469l-0.990234-2.824219z" fill="#fff"/><path id="path4" d="m10.365235 0c-5.7160008 0-10.365235 4.6501872-10.365235 10.367187v75.439453c0 5.716 4.6492342 10.367188 10.365235 10.367188h75.441405c5.716 0 10.365235-4.651188 10.365235-10.367188v-75.439453c0-5.7169998-4.649235-10.367187-10.365235-10.367187zm0 5.40625h75.441405c2.735 0 4.958985 2.2239839 4.958985 4.958984v32.835937h2e-3v16.804688h-2e-3v25.800781c0 2.735-2.223985 4.960938-4.958985 4.960938h-75.441405c-2.7340008 0-4.958985-2.225938-4.958985-4.960938v-75.441406c0-2.7350001 2.2249842-4.958984 4.958985-4.958984z" fill="#fff"/><g id="g5960" transform="translate(21.760321,30.317642)" fill="#fff"><g id="text4135" fill="#fff" stroke-width="1px"><path id="path3338" d="m14.616398 17.896484h-4.562988l2.1875-3.725586h6.357421v26.386719h-3.981933v-22.661133z"/><path id="path3340" d="m32.765812 36.814941h9.82666v3.742676h-17.722168l9.160156-11.091308q1.350098-1.657715 2.25586-2.871094 0.922851-1.213379 1.401367-2.033692 0.974121-1.606445 0.974121-2.888183 0-1.845703-1.298828-3.093262-1.298828-1.247558-3.212891-1.247558-3.999023 0-4.580078 4.733886h-3.964844q0.957032-8.339843 8.425293-8.339843 3.605957 0 6.049805 2.290039 2.460938 2.290039 2.460938 5.673828 0 2.15332-1.14502 4.221191-0.581055 1.07666-1.708984 2.563477-1.11084 1.469726-2.819825 3.486328l-4.101562 4.853515z"/></g></g></svg>

<?xml version="1.0" encoding="UTF-8" standalone="no"?>
<svg
   xmlns:dc="http://purl.org/dc/elements/1.1/"
   xmlns:cc="http://creativecommons.org/ns#"
   xmlns:rdf="http://www.w3.org/1999/02/22-rdf-syntax-ns#"
   xmlns:svg="http://www.w3.org/2000/svg"
   xmlns="http://www.w3.org/2000/svg"
   xmlns:sodipodi="http://sodipodi.sourceforge.net/DTD/sodipodi-0.dtd"
   xmlns:inkscape="http://www.inkscape.org/namespaces/inkscape"
   version="1.1"
   x="0px"
   y="0px"
   viewBox="0 0 96.171875 96.173828"
   enable-background="new 0 0 100 100"
   xml:space="preserve"
   id="svg2"
   inkscape:version="0.91 r13725"
   sodipodi:docname="date.svg"
   width="96.171875"
   height="96.173828"><metadata
     id="metadata20"><rdf:RDF><cc:Work
         rdf:about=""><dc:format>image/svg+xml</dc:format><dc:type
           rdf:resource="http://purl.org/dc/dcmitype/StillImage" /><dc:title></dc:title></cc:Work></rdf:RDF></metadata><defs
     id="defs18" /><sodipodi:namedview
     pagecolor="#66ffff"
     bordercolor="#666666"
     borderopacity="1"
     objecttolerance="10"
     gridtolerance="10"
     guidetolerance="10"
     inkscape:pageopacity="0"
     inkscape:pageshadow="2"
     inkscape:window-width="1549"
     inkscape:window-height="1057"
     id="namedview16"
     showgrid="false"
     inkscape:zoom="2.8284271"
     inkscape:cx="-23.202646"
     inkscape:cy="89.575402"
     inkscape:window-x="367"
     inkscape:window-y="31"
     inkscape:window-maximized="0"
     inkscape:current-layer="svg2"
     fit-margin-top="0"
     fit-margin-left="0"
     fit-margin-right="0"
     fit-margin-bottom="0" /><path
     style="fill:#ffffff;fill-opacity:1;stroke:none;stroke-width:5;stroke-linecap:round;stroke-linejoin:miter;stroke-miterlimit:5;stroke-dasharray:none;stroke-opacity:1"
     d="M 3.9609375 3.875 L 3.9609375 24.582031 L 92.210938 24.582031 L 92.210938 3.875 L 3.9609375 3.875 z M 38.841797 8.1015625 L 41.046875 8.1015625 L 41.046875 13.984375 C 41.046875 14.231875 41.031953 14.459922 41.001953 14.669922 C 40.979486 14.879922 40.936983 15.060937 40.876953 15.210938 C 40.779453 15.450937 40.645156 15.6725 40.472656 15.875 C 40.307656 16.07 40.111719 16.238359 39.886719 16.380859 C 39.661719 16.515859 39.410313 16.620313 39.132812 16.695312 C 38.862812 16.777812 38.579297 16.820312 38.279297 16.820312 C 37.371797 16.820312 36.6325 16.402813 36.0625 15.570312 L 37.501953 14.097656 C 37.539486 14.352656 37.622533 14.555078 37.75 14.705078 C 37.8775 14.855078 38.035156 14.929687 38.222656 14.929688 C 38.635156 14.929687 38.841797 14.603672 38.841797 13.951172 L 38.841797 8.1015625 z M 45.025391 8.1015625 L 47.433594 8.1015625 L 50.662109 16.583984 L 48.310547 16.583984 L 47.804688 15.109375 L 44.654297 15.109375 L 44.148438 16.583984 L 41.796875 16.583984 L 45.025391 8.1015625 z M 51.638672 8.1015625 L 53.84375 8.1015625 L 57.916016 13.287109 L 57.916016 8.1015625 L 60.109375 8.1015625 L 60.109375 16.583984 L 57.916016 16.583984 L 53.84375 11.396484 L 53.84375 16.583984 L 51.638672 16.583984 L 51.638672 8.1015625 z M 46.230469 10.609375 L 45.240234 13.433594 L 47.220703 13.433594 L 46.230469 10.609375 z "
     id="path4148" /><path
     d="M 10.365235,0 C 4.6492342,0 0,4.6501872 0,10.367187 L 0,85.80664 c 0,5.716 4.6492342,10.367188 10.365235,10.367188 l 75.441405,0 c 5.716,0 10.365235,-4.651188 10.365235,-10.367188 l 0,-75.439453 C 96.171875,4.6501872 91.52264,0 85.80664,0 Z m 0,5.40625 75.441405,0 c 2.735,0 4.958985,2.2239839 4.958985,4.958984 l 0,32.835937 0.002,0 0,16.804688 -0.002,0 0,25.800781 c 0,2.735 -2.223985,4.960938 -4.958985,4.960938 l -75.441405,0 c -2.7340008,0 -4.958985,-2.225938 -4.958985,-4.960938 l 0,-75.441406 c 0,-2.7350001 2.2249842,-4.958984 4.958985,-4.958984 z"
     id="path4"
     inkscape:connector-curvature="0"
     sodipodi:nodetypes="sssssssssccsccccsccssc"
     style="fill:#ffffff" /><g
     id="g5960"
     transform="translate(21.760321,30.317642)"
     style="fill:#ffffff"><g
       style="font-style:normal;font-weight:normal;font-size:40px;line-height:125%;font-family:sans-serif;letter-spacing:0px;word-spacing:0px;fill:#ffffff;fill-opacity:1;stroke:none;stroke-width:1px;stroke-linecap:butt;stroke-linejoin:miter;stroke-opacity:1"
       id="text4135"><path
         d="m 14.616398,17.896484 -4.562988,0 2.1875,-3.725586 6.357421,0 0,26.386719 -3.981933,0 0,-22.661133 z"
         style="font-style:normal;font-variant:normal;font-weight:500;font-stretch:normal;font-size:35px;font-family:futura;-inkscape-font-specification:'futura Medium';fill:#ffffff"
         id="path3338" /><path
         d="m 32.765812,36.814941 9.82666,0 0,3.742676 -17.722168,0 9.160156,-11.091308 q 1.350098,-1.657715 2.25586,-2.871094 0.922851,-1.213379 1.401367,-2.033692 0.974121,-1.606445 0.974121,-2.888183 0,-1.845703 -1.298828,-3.093262 -1.298828,-1.247558 -3.212891,-1.247558 -3.999023,0 -4.580078,4.733886 l -3.964844,0 q 0.957032,-8.339843 8.425293,-8.339843 3.605957,0 6.049805,2.290039 2.460938,2.290039 2.460938,5.673828 0,2.15332 -1.14502,4.221191 -0.581055,1.07666 -1.708984,2.563477 -1.11084,1.469726 -2.819825,3.486328 l -4.101562,4.853515 z"
         style="font-style:normal;font-variant:normal;font-weight:500;font-stretch:normal;font-size:35px;font-family:futura;-inkscape-font-specification:'futura Medium';fill:#ffffff"
         id="path3340" /></g></g></svg>
